src/categories-icons-sprite/categories/svg-cat-prod-garden.svg

<svg width="40" height="40" viewBox="0 0 40 40" fill="none" xmlns="http://www.w3.org/2000/svg">
<path class="p-DEECF1" d="M25.8594 7.1875H37.5781V18.9062H25.8594V7.1875Z" fill="#A1D1FD"/>
<path class="p-C6E2E7" d="M31.7188 7.1875H37.5781V18.9062H31.7188V7.1875Z" fill="#B9DFFC"/>
<path class="p-5A5A5A" d="M30.5469 14.2188H32.8906V18.0859H30.5469V14.2188Z" fill="#AFD9F6"/>
<path class="p-C83C50" d="M40 9.53124H23.5156L25.8594 4.84375H37.5781L40 9.53124Z" fill="#AFD9F6"/>
<path class="p-444444" d="M31.7188 14.2188H32.8906V18.0859H31.7188V14.2188Z" fill="#4D98CB"/>
<path class="p-B03244" d="M40 9.53124H31.7188V4.84375H37.5781L40 9.53124Z" fill="#4D98CB"/>
<path class="p-A9DA40" d="M40 16.445V23.5465L31.7188 25.8432L20.1642 29.0778L16.1094 23.3121C20.7737 20.0074 26.1408 17.8278 31.7188 16.9138C34.039 16.5152 36.4844 16.3514 38.8516 16.4215L40 16.445Z" fill="#58ADE5"/>
<path class="p-90C225" d="M40 16.4451V23.5466L31.7188 25.8433V16.9136C34.039 16.5153 36.4844 16.3512 38.8516 16.4216L40 16.4451Z" fill="#4D98CB"/>
<path class="p-C9E36A" d="M39.9998 23.5465V30.5777L31.7186 32.7576L24.1719 34.7497L20.1641 29.0778C23.6562 26.6403 27.5935 24.9527 31.7186 24.1324C34.3904 23.5465 37.2343 23.3591 39.9998 23.5465Z" fill="#5FBEFF"/>
<path class="p-A9DA40" d="M40 23.5465V30.5777L31.7188 32.7576V24.1324C34.3906 23.5465 37.2345 23.3591 40 23.5465Z" fill="#58ADE5"/>
<path class="p-A9DA40" d="M39.9998 30.5781V40H27.8749L25.5076 36.6486L24.1719 34.7501C26.4216 33.2032 28.9997 32.0313 31.7185 31.3282C33.6872 30.7657 35.7496 30.4844 37.7888 30.4844L39.9998 30.5781Z" fill="#58ADE5"/>
<path class="p-90C225" d="M37.789 30.4844L40 30.5781V40H31.7188V31.3282C33.6874 30.7657 35.7498 30.4844 37.789 30.4844Z" fill="#4D98CB"/>
<path class="p-FED2A4" d="M9.45312 0H11.7969V3.67186H9.45312V0Z" fill="#AFD9F6"/>
<path class="p-FED2A4" d="M9.45312 13.0469H11.7969V16.5625H9.45312V13.0469Z" fill="#AFD9F6"/>
<path class="p-FED2A4" d="M5.65222 1.72949L8.13909 4.21636L6.48199 5.87346L3.99512 3.38659L5.65222 1.72949Z" fill="#AFD9F6"/>
<path class="p-FFBD86" d="M14.7675 10.8447L17.2543 13.3316L15.5972 14.9887L13.1104 12.5018L14.7675 10.8447Z" fill="#58ADE5"/>
<path class="p-FED2A4" d="M2.42188 7.1875H5.93749V9.53124H2.42188V7.1875Z" fill="#AFD9F6"/>
<path class="p-FFBD86" d="M15.3125 7.1875H18.8281V9.53124H15.3125V7.1875Z" fill="#58ADE5"/>
<path class="p-FED2A4" d="M6.48266 10.8452L8.13976 12.5023L5.65289 14.9889L3.99609 13.3318L6.48266 10.8452Z" fill="#AFD9F6"/>
<path class="p-FFBD86" d="M15.5969 1.72949L17.254 3.38659L14.7675 5.87346L13.1104 4.21636L15.5969 1.72949Z" fill="#58ADE5"/>
<path class="p-FFBD86" d="M10.625 0H11.7969V3.67186H10.625V0Z" fill="#58ADE5"/>
<path class="p-FFBD86" d="M10.625 13.0469H11.7969V16.5625H10.625V13.0469Z" fill="#58ADE5"/>
<path class="p-FFBD86" d="M10.625 2.5C7.39074 2.5 4.76562 5.12511 4.76562 8.35936C4.76562 11.5936 7.39074 14.2187 10.625 14.2187C13.8592 14.2187 16.4843 11.5936 16.4843 8.35936C16.4843 5.12511 13.8592 2.5 10.625 2.5Z" fill="#58ADE5"/>
<path class="p-F6A96C" d="M16.4844 8.35936C16.4844 11.5936 13.8592 14.2187 10.625 14.2187V2.5C13.8592 2.5 16.4844 5.12511 16.4844 8.35936Z" fill="#4D98CB"/>
<path class="p-90C225" d="M27.875 39.9999H20.4452L0 25.9841V18.9529C3.56261 18.8125 7.17985 19.3047 10.625 20.5703C12.5705 21.2966 14.422 22.2109 16.1093 23.3123C21.2188 26.6405 25.0625 31.5859 27.0312 37.4919L27.875 39.9999Z" fill="#4D98CB"/>
<path class="p-A9DA40" d="M10.2209 28.0372C7.00468 26.4402 3.47075 25.7716 0 25.9742V33.0442L12.8393 39.9998H20.4345C18.7911 34.8161 15.1925 30.5067 10.2209 28.0372Z" fill="#58ADE5"/>
<path class="p-90C225" d="M5.75102 33.7742C3.89678 33.0909 1.89453 32.8663 0 33.0442V39.9998H12.8393C11.3537 37.1736 8.87601 34.9244 5.75102 33.7742Z" fill="#4D98CB"/>
</svg>

<svg width="40" height="40" fill="none" xmlns="http://www.w3.org/2000/svg"><path class="p-DEECF1" d="M25.86 7.188h11.718v11.718H25.86V7.188z" fill="#A1D1FD"/><path class="p-C6E2E7" d="M31.719 7.188h5.86v11.718h-5.86V7.188z" fill="#B9DFFC"/><path class="p-5A5A5A" d="M30.547 14.219h2.344v3.867h-2.344v-3.867z" fill="#AFD9F6"/><path class="p-C83C50" d="M40 9.531H23.516l2.343-4.687h11.72L40 9.53z" fill="#AFD9F6"/><path class="p-444444" d="M31.719 14.219h1.172v3.867h-1.172v-3.867z" fill="#4D98CB"/><path class="p-B03244" d="M40 9.531h-8.281V4.844h5.86L40 9.53z" fill="#4D98CB"/><path class="p-A9DA40" d="M40 16.445v7.102l-8.281 2.296-11.555 3.235-4.055-5.766a37.556 37.556 0 0115.61-6.398 36.28 36.28 0 017.133-.492l1.148.023z" fill="#58ADE5"/><path class="p-90C225" d="M40 16.445v7.102l-8.281 2.296v-8.93a36.28 36.28 0 017.133-.491l1.148.023z" fill="#4D98CB"/><path class="p-C9E36A" d="M40 23.547v7.03l-8.281 2.18-7.547 1.993-4.008-5.672a30.66 30.66 0 0111.555-4.946c2.671-.585 5.515-.773 8.28-.585z" fill="#5FBEFF"/><path class="p-A9DA40" d="M40 23.547v7.03l-8.281 2.18v-8.625c2.672-.585 5.515-.773 8.281-.585z" fill="#58ADE5"/><path class="p-A9DA40" d="M40 30.578V40H27.875l-2.367-3.351-1.336-1.899a23.965 23.965 0 017.546-3.422 22.194 22.194 0 016.07-.844l2.212.094z" fill="#58ADE5"/><path class="p-90C225" d="M37.789 30.484l2.211.094V40h-8.281v-8.672a22.192 22.192 0 016.07-.844z" fill="#4D98CB"/><path class="p-FED2A4" d="M9.453 0h2.344v3.672H9.453V0zM9.453 13.047h2.344v3.515H9.453v-3.515zM5.652 1.73L8.14 4.215 6.482 5.873 3.995 3.387l1.657-1.658z" fill="#AFD9F6"/><path class="p-FFBD86" d="M14.768 10.845l2.486 2.487-1.657 1.657-2.487-2.487 1.658-1.657z" fill="#58ADE5"/><path class="p-FED2A4" d="M2.422 7.188h3.515V9.53H2.422V7.187z" fill="#AFD9F6"/><path class="p-FFBD86" d="M15.313 7.188h3.515V9.53h-3.515V7.187z" fill="#58ADE5"/><path class="p-FED2A4" d="M6.483 10.845l1.657 1.657-2.487 2.487-1.657-1.657 2.487-2.487z" fill="#AFD9F6"/><path class="p-FFBD86" d="M15.597 1.73l1.657 1.657-2.487 2.486-1.657-1.657 2.487-2.487zM10.625 0h1.172v3.672h-1.172V0zM10.625 13.047h1.172v3.515h-1.172v-3.515z" fill="#58ADE5"/><path class="p-FFBD86" d="M10.625 2.5a5.862 5.862 0 00-5.86 5.86 5.862 5.862 0 005.86 5.859 5.862 5.862 0 005.86-5.86 5.862 5.862 0 00-5.86-5.859z" fill="#58ADE5"/><path class="p-F6A96C" d="M16.484 8.36a5.862 5.862 0 01-5.859 5.859V2.5a5.862 5.862 0 015.86 5.86z" fill="#4D98CB"/><path class="p-90C225" d="M27.875 40h-7.43L0 25.984v-7.031c3.563-.14 7.18.352 10.625 1.617a27.872 27.872 0 015.484 2.742c5.11 3.328 8.953 8.274 10.922 14.18L27.875 40z" fill="#4D98CB"/><path class="p-A9DA40" d="M10.22 28.037A20.313 20.313 0 000 25.974v7.07L12.84 40h7.595c-1.644-5.184-5.242-9.493-10.214-11.963z" fill="#58ADE5"/><path class="p-90C225" d="M5.751 33.774A13.195 13.195 0 000 33.044V40h12.84a13.11 13.11 0 00-7.089-6.226z" fill="#4D98CB"/></svg>
